X:4
T:Branle coup 71, Nicolas mon beau frre (Att. 1530-3)
M:6/2
L:1/8
K:Bb
V:1
A2 A2 A2 BA GFAG F2 GF =E=DEF AG/A/G/A/F |
B/A/B/c/BA BA/B/cB/c/ AG/A/BA/B/ G2AG G/=E/^F/G/F/G/E/F/ G2 c2 |:
M:4/2
G^FGA B3A GFGA B2A2 | z/^F/G/A/G/F/G/A/ BcBA GG/F/G/F/G/A/ B3B :|
V:2
G,3G, G,2C4 G,2G,4 C,4G,4 |
z4G,2 C4G,2 G,4D,4G,3D, |
G,4 [G,3D8]F, G,4 [D2G,2] [C2F,2] | G,4 G,4 G,4 B,4 :|
